X: 10631
M: C
L: 1/8
K: C
!f!c2c>c c2e>d | c2B>A G3G |\
c2E>F G2A>B | c2E>F G2g2 |\
{f}e2d>c g2G>B | d2d>d F2 |]
!p!d>d |\
d2B>c d2g>f | e2c>d e3d |\
cBAe c<Az2 | c<c G>F E<C zG |\


